src/topics/icons/packer.svg

<svg height="413" preserveAspectRatio="xMidYMid" viewBox="0 0 256 413" width="256" xmlns="http://www.w3.org/2000/svg"><path d="m.35684849 50.5963636 135.13696951 77.2654544v284.834909l-135.13696951-77.249939" fill="#1daeff"/><path d="m202.395152 83.8918788-146.8896975-83.70424244v58.12751514l99.8865455 57.0647275v174.429091l47.010909 26.709333c29.090909 16.601212 52.906667 6.656 52.906667-22.109091v-127.992242c0-28.780606-23.815758-65.916122-52.906667-82.5250912" fill="#1d94dd"/></svg>

<?xml version="1.0" encoding="UTF-8"?>
<svg width="256px" height="413px" viewBox="0 0 256 413" version="1.1" xmlns="http://www.w3.org/2000/svg" xmlns:xlink="http://www.w3.org/1999/xlink" preserveAspectRatio="xMidYMid">
	<g>
		<polyline fill="#1DAEFF" points="0.356848485 50.5963636 135.493818 127.861818 135.493818 412.696727 0.356848485 335.446788"></polyline>
		<path d="M202.395152,83.8918788 L55.5054545,0.187636364 L55.5054545,58.3151515 L155.392,115.379879 L155.392,289.80897 L202.402909,316.518303 C231.493818,333.119515 255.309576,323.174303 255.309576,294.409212 L255.309576,166.41697 C255.309576,137.636364 231.493818,100.500848 202.402909,83.8918788" fill="#1D94DD"></path>
	</g>
</svg>
